build/img/name.svg

<svg width="659" height="99" viewBox="0 0 659 99" fill="none" xmlns="http://www.w3.org/2000/svg">
<path d="M33.1305 3.62887L14.4095 51.7113H51.7381C49.6201 46.268 46.5189 38.2543 42.4343 27.6701C38.3497 17.0859 35.2485 9.07217 33.1305 3.62887ZM63.538 80.5155L52.7592 54.0928H13.3884L2.72306 80.5155H0L31.9959 0H34.3786L66.261 80.5155H63.538Z" fill="#3D3D3D"/>
<path d="M142.337 80.5155L112.043 3.74227L81.7493 80.5155H78.9128L110.909 0H113.291L145.174 80.5155H142.337Z" fill="#3D3D3D"/>
<path d="M162.876 42.0722V78.134H204.743V80.5155H160.494V1.13402H204.516V3.51547H162.876V39.5773H203.609V42.0722H162.876Z" fill="#3D3D3D"/>
<path d="M222.894 1.13402H225.391V80.5155H222.894V1.13402ZM227.433 41.8454V39.8041L268.279 1.13402H271.682L229.815 40.7113L274.746 80.5155H270.775L227.433 41.8454Z" fill="#3D3D3D"/>
<path d="M356.456 24.9485H353.733C352.069 21.0172 349.573 17.3127 346.245 13.8351C339.361 6.57732 330.776 2.94846 320.489 2.94846C310.353 2.94846 301.768 6.57732 294.734 13.8351C287.623 21.1684 284.068 30.2028 284.068 40.9381C284.068 51.4467 287.623 60.3299 294.734 67.5876C301.844 74.921 310.429 78.5876 320.489 78.5876C330.701 78.5876 339.286 74.921 346.245 67.5876C349.573 64.2612 352.069 60.5945 353.733 56.5876H356.456C354.414 61.4261 351.577 65.6976 347.947 69.4021C340.383 77.189 331.23 81.0825 320.489 81.0825C309.824 81.0825 300.671 77.189 293.032 69.4021C285.392 61.3883 281.572 51.9003 281.572 40.9381C281.572 29.7491 285.392 20.1478 293.032 12.134C300.671 4.34708 309.824 0.453608 320.489 0.453608C331.23 0.453608 340.383 4.34708 347.947 12.134C351.653 15.9141 354.49 20.1856 356.456 24.9485Z" fill="#3D3D3D"/>
<path d="M402.764 3.62887L384.043 51.7113H421.372C419.254 46.268 416.152 38.2543 412.068 27.6701C407.983 17.0859 404.882 9.07217 402.764 3.62887ZM433.172 80.5155L422.393 54.0928H383.022L372.357 80.5155H369.634L401.63 0H404.012L435.895 80.5155H433.172Z" fill="#3D3D3D"/>
<path d="M453.597 1.13402V39.1237H502.272V1.13402H504.768V80.5155H502.272V41.5052H453.597V80.5155H451.214V1.13402H453.597Z" fill="#3D3D3D"/>
<path d="M583.233 78.2474H589.587V99H587.091V80.5155H523.78V99H521.397V78.3608L525.708 78.134C527.524 77.0756 529.075 75.7526 530.36 74.165C531.646 72.5773 532.667 70.6873 533.424 68.4949C534.18 66.3024 534.71 64.4502 535.012 62.9381C535.391 61.3505 535.769 59.3471 536.147 56.9278C536.752 52.9966 537.357 47.0619 537.962 39.1237L540.345 1.13402H583.233V78.2474ZM528.545 78.2474H580.737V3.40207H542.614L540.458 38.8969C539.853 46.9107 539.248 52.9588 538.643 57.0412C538.114 60.5189 537.622 63.2406 537.168 65.2062C536.714 67.0962 535.731 69.4399 534.218 72.2371C532.705 75.0344 530.814 77.0378 528.545 78.2474Z" fill="#3D3D3D"/>
<path d="M607.489 1.13402H635.06C642.548 1.13402 648.41 3.59106 652.646 8.50515C656.882 13.4192 659 19.2027 659 25.8557C659 32.5842 656.882 38.4055 652.646 43.3196C648.41 48.1581 642.548 50.5773 635.06 50.5773H609.985V80.5155H607.489V1.13402ZM609.985 48.1959H635.06C641.867 48.1959 647.162 46.0034 650.944 41.6186C654.726 37.2337 656.617 32.0172 656.617 25.9691C656.617 19.921 654.726 14.7045 650.944 10.3196C647.162 5.85911 641.867 3.62887 635.06 3.62887H609.985V48.1959Z" fill="#3D3D3D"/>
</svg>

<svg viewBox="0 0 659 99" fill="none" xmlns="http://www.w3.org/2000/svg"><path d="M33.13 3.629L14.41 51.71h37.328a10107.31 10107.31 0 01-9.304-24.04 10108.426 10108.426 0 00-9.303-24.042zm30.408 76.886L52.759 54.094H13.39L2.722 80.515H0L31.996 0h2.383L66.26 80.516h-2.723zm78.799.001L112.043 3.742 81.749 80.515h-2.836L110.909 0h2.382l31.883 80.516h-2.837zm20.539-38.444v36.062h41.867v2.382h-44.249V1.133h44.022v2.381h-41.64v36.062h40.733v2.495h-40.733zm60.018-40.938h2.497v79.382h-2.497V1.133zm4.539 40.711v-2.04l40.846-38.671h3.403l-41.867 39.577 44.931 39.805h-3.971l-43.342-38.67zm129.023-16.897h-2.723c-1.664-3.93-4.16-7.635-7.488-11.113-6.884-7.258-15.469-10.887-25.756-10.887-10.136 0-18.721 3.63-25.755 10.887-7.111 7.333-10.666 16.368-10.666 27.103 0 10.509 3.555 19.392 10.666 26.65 7.11 7.333 15.695 11 25.755 11 10.212 0 18.797-3.667 25.756-11 3.328-3.327 5.824-6.993 7.488-11h2.723c-2.042 4.838-4.879 9.11-8.509 12.814-7.564 7.787-16.717 11.68-27.458 11.68-10.665 0-19.818-3.893-27.457-11.68-7.64-8.014-11.46-17.502-11.46-28.464 0-11.189 3.82-20.79 11.46-28.804 7.639-7.787 16.792-11.68 27.457-11.68 10.741 0 19.894 3.893 27.458 11.68 3.706 3.78 6.543 8.052 8.509 12.814zm46.308-21.319L384.043 51.71h37.329a9831.433 9831.433 0 01-9.304-24.04 10268.723 10268.723 0 00-9.304-24.042zm30.408 76.886l-10.779-26.422h-39.371l-10.665 26.422h-2.723L401.63 0h2.382l31.883 80.516h-2.723zm20.425-79.381v37.99h48.675V1.134h2.496v79.382h-2.496v-39.01h-48.675v39.01h-2.383V1.133h2.383zm129.636 77.113h6.354V99h-2.496V80.516H523.78V99h-2.383V78.36l4.311-.226a16.82 16.82 0 004.652-3.969c1.286-1.588 2.307-3.478 3.064-5.67.756-2.193 1.286-4.045 1.588-5.557.379-1.588.757-3.59 1.135-6.01.605-3.931 1.21-9.866 1.815-17.804l2.383-37.99h42.888v77.113zm-54.688 0h52.192V3.402h-38.123l-2.156 35.495c-.605 8.014-1.21 14.062-1.815 18.144-.529 3.478-1.021 6.2-1.475 8.165-.454 1.89-1.437 4.234-2.95 7.031-1.513 2.797-3.404 4.8-5.673 6.01zm78.944-77.113h27.571c7.488 0 13.35 2.457 17.586 7.371C656.882 13.42 659 19.203 659 25.855c0 6.73-2.118 12.55-6.354 17.465-4.236 4.838-10.098 7.257-17.586 7.257h-25.075v29.939h-2.496V1.133zm2.496 47.062h25.075c6.807 0 12.102-2.193 15.884-6.577 3.782-4.385 5.673-9.602 5.673-15.65s-1.891-11.265-5.673-15.65c-3.782-4.46-9.077-6.69-15.884-6.69h-25.075v44.567z" fill="#3D3D3D"/></svg>
